X:1
T:Title
L:1/8
Q:1/4=80
M:6/8
K:F
V:1 treble nm="Church Organ, Staff"
V:1
 c c2 d c2 | B A2- A A2 | A A2 B A2 | G F2- F/ z/ A2- | A G2 ^FGB | B2 A Bdd- | d2 c- c/ z/ BA- | %7
w: By~H.~G.~Trembath * * *|||||||
 A2 A- A/ z/ cc- | cdc- c/ z/ BA- | A2 A- A/ z/ AA- |[M:2/4] AB A2 | G[Q:1/4=60] F2 c- | %12
w: |||||
 c=B- B/A/G | FE DC | cB- B/A/G | FE DC | D/E/F/G/ A/B/c | G B3 | c/B/A BG- | G/F/ F3 | F .A3 | %21
w: |||||||||
 A c2 d- | d c3- | c c2 A- | AB- B/B/B | BA- A/G/F | Fd- d/d/e | dc- c/B/A | A B2 d- | d c3 | %30
w: |||||||||
 c c3- | c2 z2 |] %32
w: ||

